X: 137
T: Ayrılık Rüzgârı Gönlüme Doluyor
C: Kâmuran Yarkın
O: Turkey
F: http://compmusic.upf.edu/node/140
N: mahur--sarki--duyek--ayrilik_ruzgari--kamuran_yarkin
N: makam= mahur
N: form= sarki
N: usul= duyek = 8/4
M: 8/4
L: 1/16
K: C ^9/8f   
Q: 1/4=300
%%MIDI tuningsystem comma53
z2 g4 g2 g4 e2 g2  | z2 f4 f2 f4 d2 f2  | \
w:   |   | 
z2 e4 e2 e4 c2 e2  | d8 .G2 .B2 .d4  | 
w:   |   | 
z2 G4 d2 ^c4 c4  | d16  | z2 A4 B2 c4 B2 A2  | \
w:   |   |   | 
G2 A2 B2 c2 d2 e2 f2 g2  | z2 g4 g2 g4 e2 g2  | 
w:   |   | 
z2 f4 f2 f4 d2 f2  | z2 e4 e2 e4 c2 e2  | \
w:   |   | 
d8 .G2 .B2 .d4  | z2 G4 d2 ^c4 c4  | 
w:   |   | 
d16  | z2 A4 B2 c4 B2 A2  | G16  | G2 d4 ^c2 d4 e3f  | g16  | \
w:   |   |   |  *  Ay rı lık  rüz gâ  |  rı   | 
z2 b4 a2 g4 f2 g2  | 
w:  gön lü me  do lu  | 
e8 .A2 .c2 .e4  | z2 f4 f2 f4 e2 d2  | \
w:  yor   SAZ  |  Vus la tın  çi çe  | 
f8 a8  | z2 a4 g2 f4 e2 f2  | d6 e2 .d2 .c2 .B2 A2  | 
w:  ği   |  aç ma dan  so lu  |  yor   SAZ  | 
G2 d4 ^c2 d4 e3f  | g16  | z2 b4 a2 g4 f2 g2  | \
w:  *  Ay rı lık  rüz gâ  |  rı   |  gön lü me  do lu  | 
e8 .A2 .c2 .e4  | z2 f4 f2 f4 e2 d2  | 
w:  yor   SAZ  |  Vus la tın  çi çe  | 
f8 a8  | z2 a4 g2 f4 e2 f2  | d8 .G2 .B2 d4  | \
w:  ği   |  aç ma dan  so lu  |  yor   SAZ  | 
z2 g4 f2 g4 f2 e2  | g8 .B2 .d2 g4  | 
w:  El ve dâ  gü ze  |  lim  SAZ  | 
z4 f2 e2 d6 B2  | c8 .F2 .A2 c4  | z4 a2 a2 a2 g4 f2  | \
w:  be ni  bek le  |  me   SAZ  |  Gi di yo rum  di  | 
a8 c'8  | z2 b4 a2 g4 f4  | 
w:  ye   |  göz ya şı  dök  | 
g4 z2 d2 e2 f2 g4  | z2 g4 g2 g4 z2 e2  | \
w:  me   SAZ  |  Sev gi ler  ü  | 
g4 f4 .B2 .d2 f4  | z2 e4 e2 e4 c2 e2  | 
w:  mit ler  SAZ  |  hep  ha yâl  ol  | 
d8 .G2 .B2 d4  | z2 G4 d2 ^c4 c4  | d16  | \
w:  du   SAZ  |  Aş kı mız  hey  |  hât   | 
z2 A4 B2 {d}c4 B2 A2  | G2 A2 B2 c2 d2 e2 f2 g2  | 
w:  bir  ma *  sal  ol  |  du   SAZ  | 
z2 g4 g2 g4 z2 e2  | g4 f4 .B2 .d2 f4  | \
w:  Sev gi ler  ü  |  mit ler  SAZ  | 
z2 e4 e2 e4 c2 e2  | d8 .G2 .B2 d4  | 
w:  hep  ha yâl  ol  |  du   SAZ  | 
z2 G4 d2 ^c4 c4  | d16  | z2 A4 B2 {d}c4 B2 A2  | G16  | \
w:  Aş kı mız  hey  |  hât   |  bir  ma *  sal  ol  |  du    | 
z2 g4 g2 g4 e2 g2  | z2 f4 f2 f4 d2 f2  | 
w:   |   | 
z2 e4 e2 e4 c2 e2  | d8 .G2 .B2 .d4  | \
w:   |   | 
z2 G4 d2 ^c4 c4  | d16  | z2 A4 B2 c4 B2 A2  | 
w:   |   |   | 
G2 A2 B2 c2 d2 e2 f2 g2  | z2 g4 g2 g4 e2 g2  | \
w:   |   | 
z2 f4 f2 f4 d2 f2  | z2 e4 e2 e4 c2 e2  | 
w:   |   | 
d8 .G2 .B2 .d4  | z2 G4 d2 ^c4 c4  | d16  | \
w:   |   |   | 
z2 A4 B2 c4 B2 A2  | G16  | G2 d4 ^c2 d4 e3f  | 
w:   |   |  *  Ay rı lık  rüz gâ  | 
g16  | z2 b4 a2 g4 f2 g2  | e8 .A2 .c2 .e4  | \
w:  rı   |  gön lü me  do lu  |  yor   SAZ  | 
z2 f4 f2 f4 e2 d2  | f8 a8  | z2 a4 g2 f4 e2 f2  | 
w:  Vus la tın  çi çe  |  ği   |  aç ma dan  so lu  | 
d6 e2 .d2 .c2 .B2 A2  | G2 d4 ^c2 d4 e3f  | g16  | \
w:  yor   SAZ  |  *  Ay rı lık  rüz gâ  |  rı   | 
z2 b4 a2 g4 f2 g2  | e8 .A2 .c2 .e4  | 
w:  gön lü me  do lu  |  yor   SAZ  | 
z2 f4 f2 f4 e2 d2  | f8 a8  | z2 a4 g2 f4 e2 f2  | \
w:  Vus la tın  çi çe  |  ği   |  aç ma dan  so lu  | 
d8 .G2 .B2 d4  | z2 g4 f2 g4 f2 e2  | 
w:  yor   SAZ  |  El ve dâ  gü ze  | 
g8 .B2 .d2 g4  | z4 f2 e2 d6 B2  | c8 .F2 .A2 c4  | \
w:  lim  SAZ  |  be ni  bek le  |  me   SAZ  | 
z4 a2 a2 a2 g4 f2  | a8 c'8  | 
w:  Gi di yo rum  di  |  ye   | 
z2 b4 a2 g4 f4  | g4 z2 d2 e2 f2 g4  | \
w:  göz ya şı  dök  |  me   SAZ  | 
z2 g4 g2 g4 z2 e2  | g4 f4 .B2 .d2 f4  | 
w:  Sev gi ler  ü  |  mit ler  SAZ  | 
z2 e4 e2 e4 c2 e2  | d8 .G2 .B2 d4  | \
w:  hep  ha yâl  ol  |  du   SAZ  | 
z2 G4 d2 ^c4 c4  | d16  | z2 d4 d2 e4 f4  | 
w:  Aş kı mız  hey  |  hât   |  bir  ma sal  ol  | 
z2 g4 g2 g4 e2 g2  | z2 f4 f2 f4 d2 f2  | \
w:  du   KARAR SAZ  |   | 
z2 d4 d2 e4 f4  | .g6 z8-z2  | |


